X: 1
T:La Chansonette () - scottish/schottisch/schottische
C:Dominique Forges
Z:abc transcription Simon Wascher
N:please mail errors to: simon.wascher@chello.at
M:2/4
L:1/16
K:Dm
A2^GA =G2F2|EGFED4|DEFG A2GA|c2=B2A4|
A2^GA =G2F2|EGFED4|DEFG A2GF|EGFED4:|
|:A2FA BFAB|A2FA BFAB|A2EA BEAB|A2EA BEAB|
A2FA BFAB|A2FA BFAB|ABAG FGFE|DEFED4:|
